X: 34749
T: Road To Lisdoonvarna, The
R: reel
M: 4/4
K: Dmixolydian
A2AG ABcA|GE~E2 cEGE|DAAG ABcA|~B2AG FGEF|
DAAG ABcA|GE~E2 cEGE|DAAG ABcA|~B2AG FDD2||
defd ^cAA2|BGG2 ^cAA2|defd ^cAA2|~B2AG FDD2|
defd ^cAAc|BGGB ^cAA2|defd ^cAA2|~B2AG FGEF||

